X:70
T:The Peacock Followed the Hen
T:Cuddle Me,Cuddy
Z:Jack Campin, http://www.campin.me.uk/
S:Northumbrian Minstrelsy
M:9/8
L:1/8
K:G
c>de cAA cAA|c>de cAA TB2G | 
c>de cAA cAA|c>de dgd TB2G:| 
c>de gee gee|c>de gee Tf2d | 
c>de gee gee|B>cd dgd TB2G:|

